packages/icons/svgs/solid/zoom-solid.svg

<svg width="12" height="12" viewBox="0 0 12 12" xmlns="http://www.w3.org/2000/svg"><g clip-path="url(#a)"><path d="M9.525 8.475c.675-.9 1.05-1.95 1.05-3.15C10.575 2.4 8.25 0 5.325 0S0 2.4 0 5.325C0 8.25 2.4 10.65 5.325 10.65c1.2 0 2.325-.375 3.15-1.05l2.25 2.25a.81.81 0 0 0 .525.225.81.81 0 0 0 .525-.225c.3-.3.3-.75 0-1.05l-2.25-2.325Zm-4.2.6c-2.1 0-3.825-1.65-3.825-3.75S3.225 1.5 5.325 1.5 9.15 3.225 9.15 5.325s-1.725 3.75-3.825 3.75Z"/></g><defs><clipPath id="a"><path fill="#fff" d="M0 0h12v12H0z"/></clipPath></defs></svg>

<svg width="12" height="12" viewBox="0 0 12 12" fill="none" xmlns="http://www.w3.org/2000/svg">
<g clip-path="url(#clip0_668_615)">
<path d="M9.525 8.475C10.2 7.575 10.575 6.525 10.575 5.325C10.575 2.4 8.25 0 5.325 0C2.4 0 0 2.4 0 5.325C0 8.25 2.4 10.65 5.325 10.65C6.525 10.65 7.65 10.275 8.475 9.6L10.725 11.85C10.875 12 11.1 12.075 11.25 12.075C11.4 12.075 11.625 12 11.775 11.85C12.075 11.55 12.075 11.1 11.775 10.8L9.525 8.475ZM5.325 9.075C3.225 9.075 1.5 7.425 1.5 5.325C1.5 3.225 3.225 1.5 5.325 1.5C7.425 1.5 9.15 3.225 9.15 5.325C9.15 7.425 7.425 9.075 5.325 9.075Z" fill="black"/>
</g>
<defs>
<clipPath id="clip0_668_615">
<rect width="12" height="12" fill="white"/>
</clipPath>
</defs>
</svg>
